X:107
T:Across the Road
T:Cronin's
T:Paddy Cronin's
R:slide
H:Also played in Edor #137
D:Catherine McEvoy, Caoimh\'in \'O Raghallaigh & M\'iche\'al \'O Raghallaigh
Z:id:hn-slide-107
M:6/8
L:1/8
K:Ador
ABc B2G | A2B c2d | e2A cBA | e2A cBA |
G2B dBG | A2B c2d | e2A cBA |1 B2A G2B :|2 B2A G2f ||
|: gag f2g | a2g fed | e2A cBA | e2A cBA |
gag f2g | a2g fed | e2A cBA |1 B2A G2f :|2 B2A G2B ||

